Images/DarkMode-off.svg

<svg width="37" height="37" viewBox="0 0 37 37" fill="none" xmlns="http://www.w3.org/2000/svg">
<g filter="url(#filter0_i_22_297)">
<circle cx="18.5" cy="18.5" r="18.5" fill="#121212"/>
</g>
<circle cx="18.5" cy="18.5" r="18" stroke="#353535"/>
<mask id="mask0_22_297" style="mask-type:alpha" maskUnits="userSpaceOnUse" x="6" y="6" width="25" height="24">
<path d="M15.999 6.24179C16.4114 6.15628 16.8237 6.09548 17.2303 6.05558C17.6483 6.01568 18.0625 5.99668 18.471 6.00048C18.7009 6.00238 18.8853 6.19048 18.8834 6.42039C18.8815 6.5971 18.7693 6.7472 18.6135 6.80611C16.875 7.49013 15.4841 8.76508 14.631 10.344C13.7912 11.8964 13.4719 13.7414 13.8539 15.6034L13.8558 15.6167C14.2909 17.7182 15.5335 19.4454 17.1961 20.5398C18.8568 21.6343 20.9335 22.0941 23.035 21.6647L23.0483 21.6628C24.5608 21.3493 25.8775 20.6196 26.9055 19.6145C27.9695 18.5752 28.7219 17.2432 29.0582 15.784C29.1095 15.5597 29.3338 15.421 29.5561 15.4723C29.7252 15.5122 29.8468 15.649 29.8734 15.8106C30.375 18.8887 29.6169 21.9041 27.9619 24.3058C26.3145 26.6961 23.776 28.4802 20.7074 29.1111C17.5495 29.7609 14.4277 29.0693 11.9329 27.4276C9.43619 25.7802 7.56842 23.1866 6.91859 20.0287C6.28397 16.9449 6.92809 13.8953 8.48805 11.4309C10.0556 8.95889 12.5447 7.07212 15.5905 6.33299C15.6494 6.31779 15.7178 6.30259 15.7919 6.28549H15.7938L15.999 6.24179Z" fill="black"/>
</mask>
<g mask="url(#mask0_22_297)">
<path d="M-6.72953 -1.55103L-75.0687 2.81601C-86.3812 3.53891 -95.1866 12.925 -95.1866 24.2606V83.4061C-95.1866 95.2738 -85.566 104.894 -73.6983 104.894H178.042C189.91 104.894 199.531 95.2738 199.531 83.4061V21.4472C199.531 12.1162 193.509 3.85163 184.627 0.992528L179.936 -0.517438C177.808 -1.2023 175.588 -1.55103 173.353 -1.55103H150.146C147.127 -1.55103 105.288 4.10159 100.425 4.10159C97.5335 4.10159 85.168 6.07527 74.8894 7.82218C68.8833 8.84294 62.77 7.24578 57.768 3.76805C55.6823 2.31793 53.8151 1.12905 52.8847 0.798115C50.7383 0.0346447 12.2475 -1.08609 -6.72953 -1.55103Z" fill="url(#paint0_linear_22_297)"/>
<path d="M-1.9892 6.46813L-35.6306 12.698C-45.816 14.5842 -53.2061 23.4685 -53.2061 33.8271V59.5698C-53.2061 71.4374 -43.5855 81.0581 -31.7178 81.0581H191.846C203.714 81.0581 213.334 71.4374 213.334 59.5697V34.0257C213.334 26.0091 206.836 19.5104 198.819 19.5104C189.356 20.2694 170.116 21.8442 168.864 22.0719C167.611 22.2996 134.615 28.618 118.274 31.7488L98.3833 35.7075C92.3862 36.9011 86.1556 35.4967 81.3199 31.7542C74.7492 26.6689 67.6018 20.9418 66.6873 19.5104C65.6668 17.9131 58.9885 13.9927 53.6553 11.072C51.0027 9.6194 48.05 8.8157 45.0311 8.63605L3.20003 6.14683C1.46366 6.04351 -0.278839 6.1514 -1.9892 6.46813Z" fill="url(#paint1_linear_22_297)"/>
<path d="M3.59689 25.7686L-24.1827 35.2877C-26.3197 36.02 -28.6328 36.0627 -30.7954 35.4097C-37.9513 33.2492 -45.0815 38.8472 -44.681 46.3113L-44.2049 55.1831C-43.7012 64.5693 -35.6838 71.7701 -26.2975 71.2664L173.048 60.5688C183.491 60.0084 191.503 51.0878 190.943 40.6443C190.515 32.6771 184.94 26.8948 176.962 26.77C166.861 26.612 154.56 26.6456 153.356 26.7102L125.751 28.1916C121.913 28.3976 118.203 29.6292 115.002 31.7585L102.291 40.2153C101.367 40.8307 100.395 41.3734 99.3866 41.8386L83.3614 49.228C73.431 53.8071 61.61 50.2157 56.119 40.7589C52.9158 35.2421 50.2773 30.5121 49.9659 29.4083C49.6379 28.2454 47.1478 25.9128 44.2295 23.5135C39.3811 19.5276 32.8561 18.4076 26.7693 19.9389L3.59689 25.7686Z" fill="url(#paint2_linear_22_297)"/>
<path d="M-8.01791 21.6683L-35.9998 26.0131C-43.2814 27.1437 -48.6523 33.4129 -48.6523 40.7818C-48.6523 49.0361 -41.9609 55.7275 -33.7067 55.7275H184.976C190.853 55.7275 195.617 50.9632 195.617 45.0862C195.617 38.1878 189.153 33.115 182.446 34.7285C177.643 35.884 173.492 36.8684 172.706 37.0141C170.785 37.3699 133.714 31.5353 132.077 31.5353C130.768 31.5353 118.439 27.8828 112.439 26.0565L81.4773 21.1362C77.6764 20.5322 73.7952 20.6576 70.0412 21.5056L49.8951 26.0565L34.9841 29.309C28.3708 30.7516 21.465 29.9391 15.3672 27.001L9.78982 24.3138C4.25881 21.6488 -1.95107 20.7263 -8.01791 21.6683Z" fill="#232323"/>
</g>
<defs>
<filter id="filter0_i_22_297" x="0" y="0" width="37" height="41" filterUnits="userSpaceOnUse" color-interpolation-filters="sRGB">
<feFlood flood-opacity="0" result="BackgroundImageFix"/>
<feBlend mode="normal" in="SourceGraphic" in2="BackgroundImageFix" result="shape"/>
<feColorMatrix in="SourceAlpha" type="matrix" values="0 0 0 0 0 0 0 0 0 0 0 0 0 0 0 0 0 0 127 0" result="hardAlpha"/>
<feOffset dy="4"/>
<feGaussianBlur stdDeviation="2"/>
<feComposite in2="hardAlpha" operator="arithmetic" k2="-1" k3="1"/>
<feColorMatrix type="matrix" values="0 0 0 0 0.1375 0 0 0 0 0.1375 0 0 0 0 0.1375 0 0 0 0.25 0"/>
<feBlend mode="normal" in2="shape" result="effect1_innerShadow_22_297"/>
</filter>
<linearGradient id="paint0_linear_22_297" x1="52.172" y1="-1.55103" x2="52.172" y2="104.894" gradientUnits="userSpaceOnUse">
<stop stop-color="#3D3D3D"/>
<stop offset="0.25" stop-color="#383838" stop-opacity="0"/>
</linearGradient>
<linearGradient id="paint1_linear_22_297" x1="80.0641" y1="5.99127" x2="80.0641" y2="81.0581" gradientUnits="userSpaceOnUse">
<stop stop-color="#3D3D3D"/>
<stop offset="0.1875" stop-color="#2F2F2F" stop-opacity="0"/>
</linearGradient>
<linearGradient id="paint2_linear_22_297" x1="71.6366" y1="15.6331" x2="74.3323" y2="65.8662" gradientUnits="userSpaceOnUse">
<stop stop-color="#3D3D3D"/>
<stop offset="0.192708" stop-color="#383838" stop-opacity="0"/>
</linearGradient>
</defs>
</svg>

<svg xmlns="http://www.w3.org/2000/svg" width="37" height="37" fill="none"><g filter="url(#a)"><circle cx="18.5" cy="18.5" r="18.5" fill="#121212"/></g><circle cx="18.5" cy="18.5" r="18" stroke="#353535"/><mask id="b" width="25" height="24" x="6" y="6" maskUnits="userSpaceOnUse" style="mask-type:alpha"><path fill="#000" d="M15.999 6.242A11.695 11.695 0 0 1 18.471 6a.416.416 0 0 1 .142.806 7.76 7.76 0 0 0-3.982 3.538 7.747 7.747 0 0 0-.777 5.26l.002.013a7.756 7.756 0 0 0 3.34 4.923 7.755 7.755 0 0 0 5.839 1.125l.013-.002a7.741 7.741 0 0 0 3.858-2.049 7.818 7.818 0 0 0 2.152-3.83.415.415 0 0 1 .815.027 11.64 11.64 0 0 1-1.911 8.495 11.628 11.628 0 0 1-7.255 4.805c-3.158.65-6.28-.042-8.774-1.683a11.648 11.648 0 0 1-5.014-7.4 11.638 11.638 0 0 1 1.569-8.597 11.648 11.648 0 0 1 7.103-5.098c.058-.015.127-.03.2-.048h.003l.205-.043Z"/></mask><g mask="url(#b)"><path fill="url(#c)" d="m-6.73-1.551-68.339 4.367c-11.312.723-20.118 10.109-20.118 21.445v59.145c0 11.868 9.621 21.488 21.489 21.488h251.74c11.868 0 21.489-9.62 21.489-21.488V21.447A21.488 21.488 0 0 0 184.627.993l-4.691-1.51a21.483 21.483 0 0 0-6.583-1.034h-23.207c-3.019 0-44.858 5.653-49.721 5.653-2.891 0-15.257 1.973-25.536 3.72-6.006 1.02-12.119-.576-17.121-4.054-2.086-1.45-3.953-2.639-4.883-2.97C50.738.035 12.248-1.086-6.73-1.55Z"/><path fill="url(#d)" d="m-1.99 6.468-33.64 6.23c-10.186 1.886-17.576 10.77-17.576 21.13V59.57c0 11.867 9.62 21.488 21.488 21.488h223.564c11.868 0 21.488-9.62 21.488-21.488V34.026c0-8.017-6.498-14.516-14.515-14.516-9.463.76-28.703 2.334-29.955 2.562-1.253.228-34.249 6.546-50.59 9.677l-19.89 3.959c-5.998 1.193-12.228-.211-17.064-3.954-6.57-5.085-13.718-10.812-14.633-12.244-1.02-1.597-7.698-5.517-13.032-8.438-2.652-1.453-5.605-2.256-8.624-2.436L3.2 6.146a21.489 21.489 0 0 0-5.19.322Z"/><path fill="url(#e)" d="m3.597 25.769-27.78 9.519c-2.137.732-4.45.775-6.612.122-7.156-2.16-14.286 3.437-13.886 10.901l.476 8.872c.504 9.386 8.521 16.587 17.907 16.083L173.048 60.57c10.443-.56 18.455-9.481 17.895-19.925-.428-7.967-6.003-13.75-13.981-13.874-10.101-.158-22.402-.124-23.606-.06l-27.605 1.482a21.482 21.482 0 0 0-10.749 3.567l-12.711 8.456a21.451 21.451 0 0 1-2.904 1.624L83.36 49.228c-9.93 4.58-21.751.988-27.242-8.47-3.203-5.516-5.842-10.246-6.153-11.35-.328-1.163-2.818-3.495-5.736-5.895-4.849-3.985-11.374-5.105-17.46-3.574l-23.173 5.83Z"/><path fill="#232323" d="M-8.018 21.668-36 26.013a14.946 14.946 0 0 0-12.652 14.769c0 8.254 6.691 14.946 14.945 14.946h218.683c5.877 0 10.641-4.765 10.641-10.642 0-6.898-6.464-11.971-13.171-10.358-4.803 1.156-8.954 2.14-9.74 2.286-1.921.356-38.992-5.479-40.629-5.479-1.309 0-13.638-3.652-19.638-5.479l-30.962-4.92a30.312 30.312 0 0 0-11.436.37l-20.146 4.55-14.91 3.253a30.31 30.31 0 0 1-19.618-2.308L9.79 24.314a30.31 30.31 0 0 0-17.808-2.646Z"/></g><defs><linearGradient id="c" x1="52.172" x2="52.172" y1="-1.551" y2="104.894" gradientUnits="userSpaceOnUse"><stop stop-color="#3D3D3D"/><stop offset=".25" stop-color="#383838" stop-opacity="0"/></linearGradient><linearGradient id="d" x1="80.064" x2="80.064" y1="5.991" y2="81.058" gradientUnits="userSpaceOnUse"><stop stop-color="#3D3D3D"/><stop offset=".188" stop-color="#2F2F2F" stop-opacity="0"/></linearGradient><linearGradient id="e" x1="71.637" x2="74.332" y1="15.633" y2="65.866" gradientUnits="userSpaceOnUse"><stop stop-color="#3D3D3D"/><stop offset=".193" stop-color="#383838" stop-opacity="0"/></linearGradient><filter id="a" width="37" height="41" x="0" y="0" color-interpolation-filters="sRGB" filterUnits="userSpaceOnUse"><feFlood flood-opacity="0" result="BackgroundImageFix"/><feBlend in="SourceGraphic" in2="BackgroundImageFix" result="shape"/><feColorMatrix in="SourceAlpha" result="hardAlpha" values="0 0 0 0 0 0 0 0 0 0 0 0 0 0 0 0 0 0 127 0"/><feOffset dy="4"/><feGaussianBlur stdDeviation="2"/><feComposite in2="hardAlpha" k2="-1" k3="1" operator="arithmetic"/><feColorMatrix values="0 0 0 0 0.1375 0 0 0 0 0.1375 0 0 0 0 0.1375 0 0 0 0.25 0"/><feBlend in2="shape" result="effect1_innerShadow_22_297"/></filter></defs></svg>
